X: 43345
T: Would The Minister Not Dance?
R: slip jig
M: 9/8
K: Amajor
e|:AAA A<Af ecA|AAA ece f2 e|AAA A<Af ecA|BBB Bce f2 e:|
a2 f ece ecA|a2 f ece f2 e|a2 f ece ecA|BBB Bce f2 e|
a2 f ece ecA|a2 f ece f2 e|a2 e f/=g/af ecA|BBB Bce f2 e||

